packages/calcite-ui-icons/icons/bulldozer-area-32.svg

<?xml version="1.0" encoding="UTF-8"?><svg id="icons" xmlns="http://www.w3.org/2000/svg" viewBox="0 0 32 32"><defs><style>.cls-1{fill:none;}</style></defs><path d="M25,4H7v-1h18v1ZM28,16h1V7h-1v9ZM28,5h1v-2h-2v1h1v1ZM3,5h1v-1h1v-1h-2v2ZM4,7h-1v18h1V7ZM4,27h-1v2h2v-1h-1v-1ZM9.68359,28h12.2337c-.66034.6217-1.57538,1-2.55109,1h-9.68262c-1.56348,0-2.97168-.9707-3.42383-2.36035-.36133-1.10645-.18555-2.26855.48145-3.18848.33234-.45789.76709-.82147,1.25879-1.07092v-1.38025h-1v-3.10352l.98535-1.89648h2.01465v-4h-1v-1h7.70215l.77313,5h1.52472v-3h1v3h3.05859l.94141,1.88184v5.11816h-1v-4.88184l-.55859-1.11816h-13.84863l-.59277,1.14062v1.85938h1v2.0694c.19012-.03241.37976-.0694.5752-.0694h9.89941c.90912,0,1.76862.37439,2.41699,1h-12.31641c-.7959,0-1.55273.38867-2.02539,1.03906-.47656.65723-.59961,1.49219-.33887,2.29102.31934.9834,1.33594,1.66992,2.47266,1.66992ZM13,16h3.46387l-.61914-4h-2.84473v4ZM11,16h1v-4h-1v4ZM9.47559,24.95001h5.52441v-.95001h-5.52441c-.47656,0-.93066.23438-1.21484.62598-.29199.40137-.36133.89746-.19825,1.39551.18751.57617.81349.97852,1.5215.97852h7.41602v-1h-7.41602c-.28516,0-.52539-.14844-.57129-.28906-.06348-.19434-.04492-.35742.05762-.49707.09668-.13379.24805-.26385.40527-.26385ZM25,29v-2h-7v-3h7v-4h3v6.11816l2.00781,2.88184h-5.00781ZM26,28h2.0918l-1.0918-1.56738v-5.43262h-1v7ZM25,26v-1h-6v1h6Z"/><rect class="cls-1" width="32" height="32"/></svg>

<svg xmlns="http://www.w3.org/2000/svg" viewBox="0 0 32 32"><path d="M25 4H7V3h18v1zm3 12h1V7h-1v9zm0-11h1V3h-2v1h1v1zM3 5h1V4h1V3H3v2zm1 2H3v18h1V7zm0 20H3v2h2v-1H4v-1zm5.684 1h12.233c-.66.622-1.575 1-2.55 1H9.683c-1.564 0-2.972-.97-3.424-2.36-.362-1.107-.186-2.269.481-3.189A3.524 3.524 0 0 1 8 22.381V21H7v-3.104L7.985 16H10v-4H9v-1h7.702l.773 5H19v-3h1v3h3.059L24 17.882V23h-1v-4.882L22.441 17H8.593L8 18.14V20h1v2.07c.19-.033.38-.07.575-.07h9.9c.909 0 1.768.374 2.417 1H9.575c-.796 0-1.553.389-2.025 1.04-.477.656-.6 1.491-.34 2.29.32.983 1.337 1.67 2.474 1.67zM13 16h3.464l-.62-4H13v4zm-2 0h1v-4h-1v4zm-1.524 8.95H15V24H9.476c-.477 0-.931.234-1.215.626-.292.401-.362.897-.198 1.395.187.577.813.979 1.521.979H17v-1H9.584c-.285 0-.525-.148-.571-.29-.064-.193-.045-.356.057-.496.097-.134.248-.264.406-.264zM25 29v-2h-7v-3h7v-4h3v6.118L30.008 29H25zm1-1h2.092L27 26.433V21h-1v7zm-1-2v-1h-6v1h6z"/><path fill="none" d="M0 0h32v32H0z"/></svg>
